X: 59
M:2/4
L:1/16
K:F
(ucde)|.f2.f2 fcaf|.g2.g2 gcbg|agfe dcba|gfga gcde|
.f2.f2 fcaf|.g2.g2 gcbg|agfe dbge|f2f2f2:|
|:uc2|Acfc afcA|Bdfd bfdB|cege bgeg|fagf edcB|


